T: Health to the Company
%%vocalfont times 10
%%notecolors 1
%%notelabels 1
M: 3/4
L: 1/8
Q: 1/4=110
K: Am
P: Verse
e>d | "Am" e2 A2 B2 | "Em" A2 (GE3) G | "G" G2 d2 {c}B2 | "Am" A4
w: Kind ~ friends and com-pan-i-ons, come join me in rhyme
(A>B) | "Am" c2 d2 e2 | "C" (a>g) e3 d | "Am" e2 A2 B2 | "G" {A}G4
w: Come ~ lift up your voi- ~ ces in chor-us with mine
(A>B) | "Am" c2 d2 e2 | "C" (a>g) e3 d | "Am" e2 A2 B2 | "G" {A}G4
w: Come ~ lift up your vo-i-ces, all grief to re- frain
e>d | "Am" e2 A2 B2 | "Em" A2 (GE3) G | "G" G2 d2 {c}B2 | "Am" A4
w: For we may or might ne -ver all meet here a-gain
W:
W: Chorus
W:
W: So here's a health to the company and one to my lass
W: Let us drink and be merry, all out of one glass
W: Let us drink and be merry, all grief to refrain
W: For we may or might never all meet here again
W:
W: [chorus]
W:
W: Here's a health to the wee lass that I love so well
W: For her beauty in Ireland, there is none can excel
W: There's a smile upon her countenance as she sits on my knee
W: Sure there's no one in this wide world as happy as me
W:
W: [chorus]
W:
W: Our ship lies at anchor, she's ready to dock
W: I wish her safe landing, without any shock
W: And if ever I should meet you by land or by sea
W: I will always remember your kindness to me
W:
W: [chorus]
W:
